X:7
T:Pekkos Olles
R:polska J
A:Bingsj\"o, Dalarna
Z:id:hn-jp-7
M:3/4
L:1/16
K:Dm
DEFG A4 d4|A2BA G2AG F2AF|D2f2 f2ef gfed|^c2a2 age^c A4|
DEFG A4 d4|A2BA G2AG F2AF|D2f2 f2ef gfed|age^c d8:|
|:A2df a2a2 g4|A2^ce gage f3f|fafd ege^c d3e|f2ed ^c2ec A4|
A2df a2a2 g4|A2^ce gage f3f|fafd ege^c d3e|f2ed ^c2ec d4:|
